img/arrowDown.svg

<?xml version="1.0" encoding="UTF-8" standalone="no" ?>
<!DOCTYPE svg PUBLIC "-//W3C//DTD SVG 1.1//EN" "http://www.w3.org/Graphics/SVG/1.1/DTD/svg11.dtd">
<svg xmlns="http://www.w3.org/2000/svg" xmlns:xlink="http://www.w3.org/1999/xlink" version="1.1" width="1080" height="1080" viewBox="0 0 1080 1080" xml:space="preserve">
<desc>Created with Fabric.js 5.2.4</desc>
<defs>
</defs>
<rect x="0" y="0" width="100%" height="100%" fill="transparent"></rect>
<g transform="matrix(1 0 0 1 540 540)" id="de24e3e7-e903-4789-bebf-ed8f7afc3724"  >
<rect style="stroke: none; stroke-width: 1; stroke-dasharray: none; stroke-linecap: butt; stroke-dashoffset: 0; stroke-linejoin: miter; stroke-miterlimit: 4; fill: rgb(255,255,255); fill-rule: nonzero; opacity: 1; visibility: hidden;" vector-effect="non-scaling-stroke"  x="-540" y="-540" rx="0" ry="0" width="1080" height="1080" />
</g>
<g transform="matrix(1 0 0 1 540 540)" id="99d53686-ba24-4e22-9490-7f81541a5948"  >
</g>
<g transform="matrix(2.19 0 0 2.19 539.87 541.75)"  >
<g style="" vector-effect="non-scaling-stroke"   >
		<g transform="matrix(1 0 0 1 94.62 0)"  >
<path style="stroke: none; stroke-width: 1; stroke-dasharray: none; stroke-linecap: butt; stroke-dashoffset: 0; stroke-linejoin: miter; stroke-miterlimit: 4; fill: rgb(207,219,232); fill-rule: nonzero; opacity: 1;" vector-effect="non-scaling-stroke"  transform=" translate(-351.62, -323.73)" d="M 293.751 455.868 C 273.57 476.04699999999997 240.58599999999998 475.781 220.07799999999997 455.27299999999997 L 220.07799999999997 455.27299999999997 C 199.56999999999996 434.765 199.30499999999998 401.78 219.48399999999998 381.601 L 409.48299999999995 191.601 C 429.66099999999994 171.423 462.64699999999993 171.688 483.155 192.196 L 483.155 192.196 C 503.66299999999995 212.70499999999998 503.92699999999996 245.688 483.75 265.867 L 293.751 455.868 z" stroke-linecap="round" />
</g>
		<g transform="matrix(1 0 0 1 -94.62 0)"  >
<path style="stroke: none; stroke-width: 1; stroke-dasharray: none; stroke-linecap: butt; stroke-dashoffset: 0; stroke-linejoin: miter; stroke-miterlimit: 4; fill: rgb(207,219,232); fill-rule: nonzero; opacity: 1;" vector-effect="non-scaling-stroke"  transform=" translate(-162.38, -323.73)" d="M 220.249 455.868 C 240.429 476.04699999999997 273.413 475.781 293.921 455.27299999999997 L 293.921 455.27299999999997 C 314.43 434.765 314.695 401.78 294.517 381.601 L 104.517 191.601 C 84.339 171.423 51.352999999999994 171.688 30.84599999999999 192.196 L 30.84599999999999 192.196 C 10.33799999999999 212.70499999999998 10.073999999999991 245.688 30.25099999999999 265.867 L 220.249 455.868 z" stroke-linecap="round" />
</g>
</g>
</g>
<g transform="matrix(NaN NaN NaN NaN 0 0)"  >
<g style=""   >
</g>
</g>
<g transform="matrix(NaN NaN NaN NaN 0 0)"  >
<g style=""   >
</g>
</g>
</svg>

<?xml version="1.0" encoding="UTF-8"?>
<!-- Generator: Adobe Illustrator 16.0.0, SVG Export Plug-In . SVG Version: 6.00 Build 0)  -->
<!DOCTYPE svg PUBLIC "-//W3C//DTD SVG 1.1//EN" "http://www.w3.org/Graphics/SVG/1.1/DTD/svg11.dtd">
<svg version="1.1" id="Layer_1" xmlns="http://www.w3.org/2000/svg" xmlns:xlink="http://www.w3.org/1999/xlink" x="0px" y="0px" width="512px" height="512px" viewBox="0 0 512 512" enable-background="new 0 0 512 512" xml:space="preserve">
<path fill="#FFFFFF" d="M293.751,455.868c-20.181,20.179-53.165,19.913-73.673-0.595l0,0c-20.508-20.508-20.773-53.493-0.594-73.672  l189.999-190c20.178-20.178,53.164-19.913,73.672,0.595l0,0c20.508,20.509,20.772,53.492,0.595,73.671L293.751,455.868z"/>
<path fill="#FFFFFF" d="M220.249,455.868c20.18,20.179,53.164,19.913,73.672-0.595l0,0c20.509-20.508,20.774-53.493,0.596-73.672  l-190-190c-20.178-20.178-53.164-19.913-73.671,0.595l0,0c-20.508,20.509-20.772,53.492-0.595,73.671L220.249,455.868z"/>
</svg>
